svgs/sharp-solid/sink.svg

<svg xmlns="http://www.w3.org/2000/svg" viewBox="0 0 512 512"><!--! Font Awesome Pro 6.6.0 by @fontawesome - https://fontawesome.com License - https://fontawesome.com/license (Commercial License) Copyright 2024 Fonticons, Inc. --><path d="M288 96c0-17.7 14.3-32 32-32s32 14.3 32 32l0 32 64 0 0-32c0-53-43-96-96-96s-96 43-96 96l0 192-64 0 0-56 0-24-24 0-80 0-24 0 0 48 24 0 56 0 0 32-80 0L0 288l0 64 32 0 192 0 64 0 192 0 32 0 0-64-32 0-80 0 0-32 64 0 24 0 0-48-24 0-88 0-24 0 0 24 0 56-64 0 0-192zM480 384L32 384l0 32c0 53 43 96 96 96l256 0c53 0 96-43 96-96l0-32z"/></svg>

<svg xmlns="http://www.w3.org/2000/svg" viewBox="0 0 512 512"><!--! Font Awesome Pro 6.4.0 by @fontawesome - https://fontawesome.com License - https://fontawesome.com/license (Commercial License) Copyright 2023 Fonticons, Inc. --><path d="M288 96c0-17.7 14.3-32 32-32s32 14.3 32 32v32h64V96c0-53-43-96-96-96s-96 43-96 96V288H160V232 208H136 56 32v48H56h56v32H32 0v64H32 224h64H480h32V288H480 400V256h64 24V208H464 376 352v24 56H288V96zM480 384H32v32c0 53 43 96 96 96H384c53 0 96-43 96-96V384z"/></svg>
